frontend/src/assets/scalable/trash.svg

<svg xmlns="http://www.w3.org/2000/svg" viewBox="0 0 24 24"><path d="M15,8.63H9A.38.38,0,0,0,8.62,9v8a.39.39,0,0,0,.38.38h6a.38.38,0,0,0,.37-.38V9a.38.38,0,0,0-.75,0v8l.38-.37H9l.37.37V9L9,9.38h6A.38.38,0,0,0,15,8.63Z" style="fill:#dc3545"/><path d="M8,8.38h8a.38.38,0,0,0,0-.75H8a.38.38,0,0,0,0,.75Z" style="fill:#dc3545"/><path d="M10.37,8V7L10,7.38h4L13.62,7V8a.38.38,0,0,0,.75,0V7A.38.38,0,0,0,14,6.62H10A.38.38,0,0,0,9.62,7V8a.38.38,0,0,0,.75,0Z" style="fill:#dc3545"/><path d="M11.37,15V11a.38.38,0,0,0-.75,0v4a.38.38,0,0,0,.75,0Z" style="fill:#dc3545"/><path d="M13.37,15V11a.38.38,0,0,0-.75,0v4a.38.38,0,0,0,.75,0Z" style="fill:#dc3545"/></svg>

<?xml version="1.0" encoding="UTF-8" standalone="no"?>
<svg
   viewBox="0 0 24 24"
   version="1.1"
   id="svg1957"
   sodipodi:docname="trash.svg"
   inkscape:version="1.2.2 (b0a84865, 2022-12-01)"
   xmlns:inkscape="http://www.inkscape.org/namespaces/inkscape"
   xmlns:sodipodi="http://sodipodi.sourceforge.net/DTD/sodipodi-0.dtd"
   xmlns="http://www.w3.org/2000/svg"
   xmlns:svg="http://www.w3.org/2000/svg">
  <defs
     id="defs1961" />
  <sodipodi:namedview
     id="namedview1959"
     pagecolor="#505050"
     bordercolor="#eeeeee"
     borderopacity="1"
     inkscape:showpageshadow="0"
     inkscape:pageopacity="0"
     inkscape:pagecheckerboard="0"
     inkscape:deskcolor="#505050"
     showgrid="false"
     inkscape:zoom="9.8333333"
     inkscape:cx="9.8644068"
     inkscape:cy="12"
     inkscape:window-width="1440"
     inkscape:window-height="872"
     inkscape:window-x="0"
     inkscape:window-y="28"
     inkscape:window-maximized="0"
     inkscape:current-layer="svg1957" />
  <g
     id="g2085"
     transform="matrix(2.2304834,0,0,2.2304834,-14.765801,-14.765801)">
    <path
       d="M 15,8.63 H 9 A 0.38,0.38 0 0 0 8.62,9 v 8 A 0.39,0.39 0 0 0 9,17.38 h 6 A 0.38,0.38 0 0 0 15.37,17 V 9 a 0.38,0.38 0 0 0 -0.75,0 v 8 L 15,16.63 H 9 L 9.37,17 V 9 L 9,9.38 h 6 a 0.38,0.38 0 0 0 0,-0.75 z"
       style="fill:#dc3545"
       id="path1947" />
    <path
       d="m 8,8.38 h 8 A 0.38,0.38 0 0 0 16,7.63 H 8 a 0.38,0.38 0 0 0 0,0.75 z"
       style="fill:#dc3545"
       id="path1949" />
    <path
       d="M 10.37,8 V 7 L 10,7.38 h 4 L 13.62,7 v 1 a 0.38,0.38 0 0 0 0.75,0 V 7 A 0.38,0.38 0 0 0 14,6.62 H 10 A 0.38,0.38 0 0 0 9.62,7 v 1 a 0.38,0.38 0 0 0 0.75,0 z"
       style="fill:#dc3545"
       id="path1951" />
    <path
       d="m 11.37,15 v -4 a 0.38,0.38 0 0 0 -0.75,0 v 4 a 0.38,0.38 0 0 0 0.75,0 z"
       style="fill:#dc3545"
       id="path1953" />
    <path
       d="m 13.37,15 v -4 a 0.38,0.38 0 0 0 -0.75,0 v 4 a 0.38,0.38 0 0 0 0.75,0 z"
       style="fill:#dc3545"
       id="path1955" />
  </g>
</svg>
